X: 8989
T: Cwrw Da
R: slip jig
M: 9/8
K: Cmajor
|:cde c2c cBG|cde c2e gfe|cde c2c dBG|ABc dcB c3:|
|:efg g2g gfe|fga a2a agf|efg g2g gfe|c'ba gfe d2 g:|
|:cGE cGE cAF|cGE cGE BGD|cGE cGE cBA|^GAB EA^G A3:|

